svgs/duotone/circle-r.svg

<svg xmlns="http://www.w3.org/2000/svg" viewBox="0 0 512 512"><!-- Font Awesome Pro 6.0.0-alpha2 by @fontawesome - https://fontawesome.com License - https://fontawesome.com/license (Commercial License) --><defs><style>.fa-secondary{opacity:.4}</style></defs><path d="M288 176H208V240H288C305.656 240 320 225.641 320 208S305.656 176 288 176ZM256 16C123.451 16 16 123.451 16 256S123.451 496 256 496S496 388.549 496 256S388.549 16 256 16ZM355.406 345.891C363.219 356.609 360.844 371.609 350.125 379.406C345.844 382.516 340.906 384 336.031 384C328.594 384 321.281 380.578 316.594 374.109L253.969 288H208V360C208 373.25 197.25 384 184 384S160 373.25 160 360V152C160 138.75 170.75 128 184 128H288C332.125 128 368 163.891 368 208C368 244.195 343.688 274.5 310.641 284.338L355.406 345.891Z" class="fa-secondary"/><path d="M368 208C368 163.891 332.125 128 288 128H184C170.75 128 160 138.75 160 152V360C160 373.25 170.75 384 184 384S208 373.25 208 360V288H253.969L316.594 374.109C321.281 380.578 328.594 384 336.031 384C340.906 384 345.844 382.516 350.125 379.406C360.844 371.609 363.219 356.609 355.406 345.891L310.641 284.338C343.688 274.5 368 244.195 368 208ZM288 240H208V176H288C305.656 176 320 190.359 320 208S305.656 240 288 240Z" class="fa-primary"/></svg>

<svg xmlns="http://www.w3.org/2000/svg" viewBox="0 0 512 512"><!--! Font Awesome Pro 6.3.0 by @fontawesome - https://fontawesome.com License - https://fontawesome.com/license (Commercial License) Copyright 2023 Fonticons, Inc. --><defs><style>.fa-secondary{opacity:.4}</style></defs><path class="fa-primary" d="M368 208C368 163.9 332.1 128 288 128H184C170.8 128 160 138.8 160 152v208C160 373.3 170.8 384 184 384s24-10.75 24-24V288h45.97l62.63 86.11C321.3 380.6 328.6 384 336 384c4.875 0 9.812-1.484 14.09-4.594c10.72-7.797 13.09-22.8 5.281-33.52l-44.77-61.55C343.7 274.5 368 244.2 368 208zM288 240H208v-64H288c17.66 0 32 14.36 32 32S305.7 240 288 240z"/><path class="fa-secondary" d="M256 0C114.6 0 0 114.6 0 256s114.6 256 256 256s256-114.6 256-256S397.4 0 256 0zM355.4 345.9c7.812 10.72 5.438 25.72-5.281 33.52C345.8 382.5 340.9 384 336 384c-7.438 0-14.75-3.422-19.44-9.891L253.1 288H208v72C208 373.3 197.3 384 184 384S160 373.3 160 360v-208C160 138.8 170.8 128 184 128H288c44.13 0 80 35.89 80 80c0 36.2-24.31 66.5-57.36 76.34L355.4 345.9zM288 176H208v64H288c17.66 0 32-14.36 32-32S305.7 176 288 176z"/></svg>
